!! 00000] TT[WS
!!!OTL: Shieryue xiaochang
!!!ARE: Asia, China, Shanxi Xixian
!! Ethnic Group: Han
!! WI, 307
!!!SCT: J0371
!!!YEM: Copyright 1995, estate of Helmut Schaffrath.
**kern
*ICvox
*Ivox
*M2/4
*k[b-]
*F:
{4f
8e
8d
=1
4c
4r
=2
8f
8g
8a
8g
=3
4f
4r}
=4
{4f
8g
8a
=5
4g
4f
=6
8g
8f
8e
8d
=7
4c
4r}
=8
{8f
8c
4f
=9
8e
8d
4c
=10
8f
8c
8f
8g
=11
8e
8d
4c}
=12
{8.c
16c
8g
8a
=13
4c
4r
=14
8g
4g
8a
=15
4c
4f}
=16
{4g
8g
8d
=17
8g
8g
8g
8d
=18
4.c
8d
=19
4c
4r}
==
!!!AGN: Xiaodiao. Xinminge, Xuanchuan
!! Neue Text. Politische Liede
!!!ONB: ESAC (Essen Associative Code) Database: CHINA
!!!AMT: simple duple
!!!AIN: vox
!!!EED: Helmut Schaffrath
!!!EEV: 1.0
*-
